!!!OTL: Xiangei lingxiu xiangei dang
!!!ARE: Asia, China,ÿQinghai Haixi
!! I, 218
!!!SCT: C1850
!!!YEM: Copyright 1995, estate of Helmut Schaffrath.
**kern
*ICvox
*Ivox
*M2/4
*k[f#c#]
*D:
{[2ff#
=1
2ff#]}
=2
{8b
8b
8b
8a
=3
8.b
16a
8f#
8f#
=4
8.a
16a
8b
8ee
=5
[2dd
=6
4.dd]
8ee}
=7
{16b
16a
16b
16dd
[4a
=8
2a]
=9
8.a
16b
4dd
=10
8f#
16e
16f#
8a
8f#
=11
8.e
16f#
4e}
=12
{8.ff#
16ee
16dd
16ee
8ff#
=13
16b
16dd
16b
16dd
16f#
16f#
8a
=14
8.f#
16a
8b
8dd
=15
8a
16a
16b
4a}
=16
{4f#
[4dd
=17
4.dd]
8ee
=18
8f#
4a
16f#
16e
=19
8.d
16e
16f#
16e
16f#
16a
=20
[2B
=21
4B]}
{8e
8f#
=22
8a
4f#
16a
16b
=23
4.dd
8d
=24
[2e
=25
2e]}
==
!!!AGN: Shange
!! Menggu
!!!ONB: ESAC (Essen Associative Code) Database: SENGANSU
!!!AMT: simple duple
!!!AIN: vox
!!!EED: Helmut Schaffrath
!!!EEV: 1.0
*-
!!!ONB: Tied note syntax fixed by Craig Sapp, 2004/05/03/
